/* XPM */
static char * arcOp_xpm[] = {
"24 24 7 1",
" 	c #DCDCDADAD5D5",
".	c #0000CDCD0000",
"X	c #00000000FFFF",
"o	c #181818182929",
"O	c #000000000000",
"+	c #A5A59C9CADAD",
"@	c #525252525A5A",
"                        ",
"                        ",
"                        ",
"                        ",
"           ..           ",
"          .XXo          ",
"           .. oO        ",
"                O       ",
"     .          O       ",
"    .X.          O      ",
"    .X.          O      ",
"     O           o+     ",
"     O           @+     ",
"     O           O      ",
"     O           O      ",
"      O         O       ",
"      O         O       ",
"       OO     OO        ",
"         OOOOO          ",
"                        ",
"                        ",
"                        ",
"                        ",
"                        "};
