/* XPM */
static char * arrowOp_xpm[] = {
"24 24 4 1",
" 	c #DCDCDADAD5D5",
".	c #B3B3B2B2AEAE",
"X	c #000000000808",
"o	c #000000000000",
"                        ",
"            .           ",
"            XX.         ",
"             .XX.       ",
"               .XX.     ",
"       ooooooooooooX.   ",
"  .            .oo.     ",
"  XX.        .oo.       ",
"  XXXX.     oo.         ",
"  XXXXXX.   .           ",
"ooXXXXXXXX.             ",
"  XXXXXX.               ",
"  XXXX.       .         ",
"  XX.         oo.       ",
"  .           .ooo.     ",
"                .ooo.   ",
"         ooooooooooooo. ",
"                .ooo.   ",
"              .ooo.     ",
"              oo.       ",
"              .         ",
"                        ",
"                        ",
"                        "};
