/* XPM */
static char * brokenlineOp_xpm[] = {
"24 24 5 1",
" 	c #DCDCDADAD5D5",
".	c #0000CDCD0000",
"X	c #00000000CDCD",
"o	c #000000000000",
"O	c #A6A6A4A4A0A0",
"                        ",
"                        ",
"        ..              ",
"       .XX.       ..    ",
"       .XXooooooooXX.   ",
"        ..O      .XX.   ",
"          oO      ..    ",
"          Oo            ",
"           oO           ",
"   ..      Oo           ",
"  .XX.      oO          ",
"  .XXooO    Oo          ",
"   o  OooO   oO         ",
"   o    OooO Oo         ",
"   o      OooOo.        ",
"   o        OoXX.       ",
"   o         .XX.       ",
"   o          ..        ",
"  .o                    ",
" .XX.                   ",
" .XX.                   ",
"  ..                    ",
"                        ",
"                        "};
