/* XPM */
static char * brushOp_xpm[] = {
"24 24 13 1",
" 	c #DCDCDADAD5D5",
".	c #59597979D7D7",
"X	c #EFEFEFEFF7F7",
"o	c #383830302828",
"O	c #696959595959",
"+	c #202000001010",
"@	c #000008081818",
"#	c #000000000000",
"$	c #181820204141",
"%	c #696910100000",
"&	c #8E8E28281010",
"*	c #E7E771710808",
"=	c #C7C738380808",
"                        ",
"             .XX.       ",
"            oXXXO.OO    ",
"            .XX..Ooo+@# ",
"           OXXX.OO$o+#  ",
"           OXX..Oo$++   ",
"          oXXXOOOoo%    ",
"         &OXX.OoOoo     ",
"         oXXX.O+$o      ",
"        %OXXOOOoo       ",
"        o.XXOO$$        ",
"       ++O...$$         ",
"      o&++#Oo$          ",
"     $&$o+o##           ",
"    +O+&@o#O            ",
"   &o&O+o++o            ",
"   oo*&@%#o             ",
"  &o+=%++$o             ",
"  o%&+$&+O              ",
" O$O%@%+&               ",
" o&O@oo%                ",
" +Oo%O                  ",
"                        ",
"                        "};
