/* XPM */
static char * dotPenOp_xpm[] = {
"24 24 24 1",
" 	c #DCDCDADAD5D5",
".	c #8C6252942108",
"X	c #E73894A439CE",
"o	c #E738AD6A1084",
"O	c #108418C61084",
"+	c #84206318318C",
"@	c #39CE294A0842",
"#	c #210821080000",
"$	c #18C618C60000",
"%	c #A5286B5A5AD6",
"&	c #EF7ABDEE9CE6",
"*	c #BDEE739C6B5A",
"=	c #9CE66B5A6318",
"-	c #CE72A5287BDE",
";	c #DEF694A46B5A",
":	c #108410840000",
">	c #94A439CE294A",
",	c #5AD6318C18C6",
"<	c #631842104210",
"1	c #2108294A2108",
"2	c #294A39CE0000",
"3	c #4210318C294A",
"4	c #000000000000",
"5	c #4A524A524A52",
"              .XXo......",
"             .XXX......O",
"            .oXo...+..@#",
"           .XXX......$#@",
"          .XXo......@#@#",
"         %&&X......O#@#O",
"        *&&&...+..@#@#@$",
"        =&&&-;;..$#@#$:>",
"       =&&&-;;*=@#@#@$> ",
"       %&&--;%,,#@#O:>  ",
"      *&&-;-*<12@3@$>   ",
"      %&-;;%,@2@3,:>    ",
"     =&&;;*3121@3<=     ",
"     %&*;%3@2<@<.*      ",
"    *-*=.322,<.*      4 ",
"    =*%.@@@<<*      4   ",
"   4*<,213.*      4     ",
"  544@2,.*        4     ",
"  44:43=      44        ",
" 54445     44           ",
" 44                     ",
"54   4 44               ",
"                        ",
"                        "};
