/* XPM */
static char * eraseOp_xpm[] = {
/* columns rows colors chars-per-pixel */
"24 24 5 1",
" 	c #DCDCDADAD5D5",
".	c black",
"X	c #FFF68F",
"o	c #EEEE00",
"O	c red",
/* pixels */
"                        ",
"                  ..XXX ",
"                ..XXXXX ",
"              ..XXXXXXX ",
"            ..XXXXXXXXX ",
"          ..XXXXXXXXX.. ",
"          .o..XXXXX..oo ",
"   OOOOO  .ooo..X..oooo ",
"   OOOOO  .ooooo.oooooo ",
"   OOOOO  .ooooo.oooooo ",
"   OOOOO  .ooooo.oooo.. ",
"   OOOOOO  ..ooo.oo..   ",
"   OOOOOO    ..o...     ",
"   OOOOOO      ..       ",
"   OOOOOO               ",
"   OOOOOO               ",
"   OOOOOOOOO            ",
"   OOOOOOOOO            ",
"   OOOOOOOOOOOOOO       ",
"   OOOOOOOOOOOOOO       ",
"   OOOOOOOOOOOOOO       ",
"                        ",
"                        ",
"                        "};
