/* XPM */
static char * fillOp_xpm[] = {
"24 24 30 1",
" 	c #DCDCDADAD5D5",
".	c #181818182121",
"X	c #101018181010",
"o	c #313139393131",
"O	c #393918181010",
"+	c #5A5A52525252",
"@	c #080800000808",
"#	c #424252524A4A",
"$	c #000000000000",
"%	c #42424A4A4A4A",
"&	c #5A5A5A5A5A5A",
"*	c #424229292929",
"=	c #737373737373",
"-	c #52524A4A4A4A",
";	c #4A4A42424242",
":	c #6B6B52525252",
">	c #BDBDBDBDB5B5",
",	c #525242424A4A",
"<	c #737329292929",
"1	c #848484848484",
"2	c #CECEB5B5B5B5",
"3	c #949494949494",
"4	c #636363636363",
"5	c #EFEFA5A5ADAD",
"6	c #6B6B10101010",
"7	c #A5A529293939",
"8	c #9C9C18182121",
"9	c #CECE21213131",
"0	c #C6C618182121",
"q	c #BDBDBDBDC6C6",
"                        ",
"      .X.o.             ",
"     .     O            ",
"    .       .           ",
"    .   +@...           ",
"    . #@$@$$X           ",
"    .##oX@@$.%          ",
"    #&##oX*$X+=         ",
"    +-&-%;;#@#:%        ",
"  >&+:+:+-,%@:-+;       ",
" >>:::<:<:,$1:&%&%      ",
" >2*O<O<O*;33144-+%     ",
" 25<<666*;443314:#:%    ",
" 2576676<-+:=3314:-%-   ",
" 25<89<6*%+:4=331=&%&%  ",
" 2570076*o;+:4=333=4-%  ",
" 258008OOOo;-+:413144%  ",
" 257007O@X;*;,:::3314   ",
" 2580085$$XO.%#+:==1%   ",
" 25800752$$X*o;%:44$    ",
" 25809<52 $$XO.o%4$     ",
" 25700752  $$X.o@$      ",
" 25700852   $$$@q       ",
" 25700852               "};
