/* XPM */
static char * filledSplineOp_xpm[] = {
"24 24 4 1",
" 	c #DCDCDADAD5D5",
".	c #0000CDCD0000",
"X	c #000000000000",
"o	c #FFFF00000000",
"                        ",
"          ...XXXX       ",
"          .X.ooooXX     ",
"          ...ooooooX    ",
"            XoooooooX   ",
"             XoooooooX  ",
"              XooooooX  ",
"             ...oooooX  ",
"             .X.oooooX  ",
"             ...oooooX  ",
"     XX      XooooooX   ",
"    XooX     XoooooX    ",
"  ...oooX   XoooooX     ",
"  .X.ooooXXXoooo...     ",
"  ...ooooooooooo.X.     ",
"   Xoooooooooooo...     ",
"   XoooooooooooX        ",
"   XooooooooooX         ",
"    XoooooooooX         ",
"    XoooooooooX         ",
"    XooooooooooX        ",
"    XXXXXXXoooooX       ",
"           XXXXXXX      ",
"                        "};
