/* XPM */
static char * filledOvalOp_xpm[] = {
"24 24 7 1",
" 	c #DCDCDADAD5D5",
".	c #000000000000",
"X	c #FFFF00000000",
"o	c #A5A5A5A5A5A5",
"O	c #4A4A4A4A4A4A",
"+	c #9C9C9C9C9C9C",
"@	c #525252525252",
"                        ",
"                        ",
"                        ",
"                        ",
"                        ",
"         .....          ",
"       ..XXXXX..        ",
"      .XXXXXXXXX.       ",
"      .XXXXXXXXX.       ",
"     .XXXXXXXXXXX.      ",
"     .XXXXXXXXXXX.      ",
"    oOXXXXXXXXXXXOo     ",
"    +@XXXXXXXXXXX@o     ",
"     .XXXXXXXXXXX.      ",
"     .XXXXXXXXXXX.      ",
"      .XXXXXXXXX.       ",
"      .XXXXXXXXX.       ",
"       ..XXXXX..        ",
"         .....          ",
"                        ",
"                        ",
"                        ",
"                        ",
"                        "};
