/* XPM */
static char * filledPolygonOp_xpm[] = {
"24 24 3 1",
" 	c #DCDCDADAD5D5",
".	c #000000000000",
"X	c #FFFF00000000",
"                        ",
"                        ",
"                        ",
"                        ",
"        ..              ",
"        .X.         .   ",
"       .XXX.      ...   ",
"       .XXX.    ..XX.   ",
"       .XXXX. ..XXXX.   ",
"      .XXXXXX.XXXXXX.   ",
"      .XXXXXXXXXXXXX.   ",
"     .XXXXXXXXXXXXXX.   ",
"     .XXXXXXXXXXXXXX.   ",
"     .XXXXX....XXXXXX.  ",
"    .XX....    .XXXXX.  ",
"    ...         .XXXX.  ",
"                 .XXX.  ",
"                  .XX.  ",
"                   .X.  ",
"                    ..  ",
"                     .  ",
"                        ",
"                        ",
"                        "};
