/* XPM */
static char * filledFreehandOp_xpm[] = {
"24 24 3 1",
" 	c #DCDCDADAD5D5",
".	c #000000000000",
"X	c #FFFF00000000",
"                        ",
"                        ",
"                        ",
"                .....   ",
"               .XXXXX.  ",
"    .....     .XXXXXX.  ",
"   .XXXXX..  .XXXXXXX.  ",
"   .XXXXXXX..XXXXXXX.   ",
"  .XXXXXXXXXXXXXXXXX.   ",
"  .XXXXXXXXXXXXXXXX.    ",
"   .XXXXXXXXXXXXXX.     ",
"   .XXXXXXXXXXXXX.      ",
"    .XXXXXXXXXXXX.      ",
"    .XXXXXXXXXXXX.      ",
"     ..XXXXXXXXXX.      ",
"       .XXXXXXXXXX.     ",
"       .XXXXXXXXXX.     ",
"        .XXXXXXXXXX.    ",
"        .XXXXXXXXX..    ",
"        .XXXXX....      ",
"        .X....          ",
"        ..              ",
"                        ",
"                        "};
