/* XPM */
static char * filledBoxOp_xpm[] = {
"24 24 3 1",
" 	c #DCDCDADAD5D5",
".	c #000000000000",
"X	c #FFFF00000000",
"                        ",
"                        ",
"                        ",
"                        ",
"                        ",
"     ..............     ",
"     .XXXXXXXXXXXX.     ",
"     .XXXXXXXXXXXX.     ",
"     .XXXXXXXXXXXX.     ",
"     .XXXXXXXXXXXX.     ",
"     .XXXXXXXXXXXX.     ",
"     .XXXXXXXXXXXX.     ",
"     .XXXXXXXXXXXX.     ",
"     .XXXXXXXXXXXX.     ",
"     .XXXXXXXXXXXX.     ",
"     .XXXXXXXXXXXX.     ",
"     .XXXXXXXXXXXX.     ",
"     .XXXXXXXXXXXX.     ",
"     ..............     ",
"                        ",
"                        ",
"                        ",
"                        ",
"                        "};
