/* XPM */
static char * freehandOp_xpm[] = {
"24 24 2 1",
" 	c #DCDCDADAD5D5",
".	c #000000000000",
"                        ",
"                        ",
"                        ",
"                .....   ",
"               .     .  ",
"    .....     .      .  ",
"   .     ..  .       .  ",
"   .       ..       .   ",
"  .                 .   ",
"  .                .    ",
"   .              .     ",
"   .             .      ",
"    .            .      ",
"    .            .      ",
"     ..          .      ",
"       .          .     ",
"       .          .     ",
"        .          .    ",
"        .         ..    ",
"        .     ....      ",
"        . ....          ",
"        ..              ",
"                        ",
"                        "};
