/* XPM */
static char * gradientFillOp_xpm[] = {
"24 24 35 1",
" 	c #DCDCDADAD5D5",
".	c #181818182020",
"X	c #101018181010",
"o	c #303038383030",
"O	c #383818181010",
"+	c #595951515151",
"@	c #080800000808",
"#	c #414151514949",
"$	c #000000000000",
"%	c #414149494949",
"&	c #595959595959",
"*	c #414128282828",
"=	c #717171717171",
"-	c #515149494949",
";	c #494941414141",
":	c #696951515151",
">	c #515141414949",
",	c #717128282828",
"<	c #868686868686",
"1	c #BEBEBEBEBEBE",
"2	c #CFCFB6B6B6B6",
"3	c #969696969696",
"4	c #616161616161",
"5	c #696910101010",
"6	c #797900007171",
"7	c #A6A628283838",
"8	c #D7D700002020",
"9	c #9E9E18182020",
"0	c #C7C718182828",
"q	c #FFFF00000000",
"w	c #B6B600004141",
"e	c #8E8E00006161",
"r	c #696900008686",
"t	c #41410000A6A6",
"y	c #20200000C7C7",
"                        ",
"      .X.o.             ",
"     .     O            ",
"    .       .           ",
"    .   +@...           ",
"    . #@$@$$X           ",
"    .##oX@@$.%          ",
"    #&##oX*$X+=         ",
"    +-&-%;;#@#:%        ",
"   &+:+:+->%@:-+;       ",
"   :::,:,:>$<:&%&%1     ",
"  2*O,O,O*;33<44-+%     ",
"   ,,555*;4433<4:#:%    ",
"   65575,-+:=33<4:-%-   ",
"   890,5*%+:4=33<=&%&%  ",
"   qw775*o;+:4=333=4-%  ",
"   qwe7OOOo;-+:4<3<44%  ",
"   qwerO@X;*;>:::33<4   ",
"   qwert$$XO.%#+:==<%   ",
"   qwerty$$X*o;%:44$    ",
"   qwerty $$XO.o%4$     ",
"   qwerty  $$X.o@$      ",
"   qwerty   $$$@        ",
"   qwerty               "};
