/* XPM */
static char * lineOp_xpm[] = {
"24 24 5 1",
" 	c #DCDCDADAD5D5",
".	c #0000CDCD0000",
"X	c #00000000FFFF",
"o	c #000000000000",
"O	c #000000000808",
"                        ",
"                        ",
"                   ..   ",
"                  .XX.  ",
"                  .XX.  ",
"                  o..   ",
"                 O      ",
"                o       ",
"               o        ",
"              o         ",
"             o          ",
"            o           ",
"           o            ",
"          o             ",
"         o              ",
"        o               ",
"       o                ",
"      o                 ",
"   ..o                  ",
"  .XX.                  ",
"  .XX.                  ",
"   ..                   ",
"                        ",
"                        "};
