/* XPM */
static char * ovalOp_xpm[] = {
"24 24 6 1",
" 	c #DCDCDADAD5D5",
".	c #000000000000",
"X	c #A528A528A528",
"o	c #4A524A524A52",
"O	c #9CE69CE69CE6",
"+	c #529452945294",
"                        ",
"                        ",
"                        ",
"                        ",
"                        ",
"         .....          ",
"       ..     ..        ",
"      .         .       ",
"      .         .       ",
"     .           .      ",
"     .           .      ",
"    Xo           oX     ",
"    O+           +X     ",
"     .           .      ",
"     .           .      ",
"      .         .       ",
"      .         .       ",
"       ..     ..        ",
"         .....          ",
"                        ",
"                        ",
"                        ",
"                        ",
"                        "};
