/* XPM */
static char * polygonOp_xpm[] = {
"24 24 2 1",
" 	c #DCDCDADAD5D5",
".	c #000000000000",
"                        ",
"                        ",
"                        ",
"                        ",
"        ..              ",
"        . .         .   ",
"       .   .      ...   ",
"       .   .    ..  .   ",
"       .    . ..    .   ",
"      .      .      .   ",
"      .             .   ",
"     .              .   ",
"     .              .   ",
"     .     ....      .  ",
"    .  ....    .     .  ",
"    ...         .    .  ",
"                 .   .  ",
"                  .  .  ",
"                   . .  ",
"                    ..  ",
"                     .  ",
"                        ",
"                        ",
"                        "};
