/* XPM */
static char * rayOp_xpm[] = {
"24 24 13 1",
" 	c #DCDCDADAD5D5",
".	c #B5B5B5B5E7E7",
"X	c #080808089C9C",
"o	c #BDBDBDBDCECE",
"O	c #000000000000",
"+	c #BDBDB5B5E7E7",
"@	c #BDBDBDBDC6C6",
"#	c #B5B5B5B5DEDE",
"$	c #B5B5BDBDE7E7",
"%	c #101010105252",
"&	c #B5B5BDBDCECE",
"*	c #101018185252",
"=	c #B5B5BDBDC6C6",
"                        ",
"                        ",
"   ..                   ",
"  .XX.           o..o   ",
"  .XXOOOOOOOOOOOOOXX.   ",
"   .OO           .XX+   ",
"    OOOO          ..o   ",
"    OO  OO              ",
"    O O   OO            ",
"    O O     OO          ",
"    O  O      OO        ",
"    O   O       O..     ",
"    O   O       .XX.    ",
"    O    O      .XX.    ",
"    O     O      ..     ",
"    O     O             ",
"    O      O            ",
" @@oO@     O..          ",
" @#.O @    .OX.         ",
" o$%%.&    .XX.         ",
" o.*%.o     ..          ",
" @#..#=                 ",
"  @oo@@                 ",
"                        "};
