/* XPM */
static char * selectSplineOp_xpm[] = {
"24 24 4 1",
" 	c #080800009C9C",
".	c #0000CDCD0000",
"X	c #DCDCDADAD5D5",
"o	c #000000000000",
"                        ",
"          ...X X        ",
"          .o.   X X     ",
"          ...      X    ",
"            X           ",
"                     X  ",
"              X         ",
"             ...     X  ",
"             .o.        ",
"             ...     X  ",
"     X       X          ",
"    X  X           X    ",
"  ...       X           ",
"  .o.    X X    ...     ",
"  ...           .o.     ",
"   X            ...     ",
"               X        ",
"   X                    ",
"    X         X         ",
"                        ",
"    X          X        ",
"      X X X             ",
"           X X X X      ",
"                        "};
