/* XPM */
static char * selectOvalOp_xpm[] = {
"24 24 2 1",
" 	c #084208429CE6",
".	c #DCDCDADAD5D5",
"                        ",
"                        ",
"                        ",
"                        ",
"                        ",
"         . . .          ",
"       .       .        ",
"                        ",
"      .         .       ",
"                        ",
"     .           .      ",
"                        ",
"     .           .      ",
"                        ",
"     .           .      ",
"                        ",
"      .         .       ",
"        .     .         ",
"          . .           ",
"                        ",
"                        ",
"                        ",
"                        ",
"                        "};
