/* XPM */
static char * smearOp_xpm[] = {
"24 24 43 1",
" 	c #DCDCDADAD5D5",
".	c #8C8C4A4A3131",
"X	c #848439392121",
"o	c #848431312121",
"O	c #8C8C52524A4A",
"+	c #9C9C6B6B5252",
"@	c #8C8C42422929",
"#	c #8C8C5A5A5252",
"$	c #949463634A4A",
"%	c #8C8C63634A4A",
"&	c #8C8C4A4A3939",
"*	c #94945A5A5252",
"=	c #8C8C5A5A4242",
"-	c #848439392929",
";	c #949452524242",
":	c #9C9C6B6B6B6B",
">	c #94946B6B6363",
",	c #8C8C42423131",
"<	c #949463635A5A",
"1	c #9C9C73737373",
"2	c #9C9C94949494",
"3	c #525229292121",
"4	c #9C9C63635252",
"5	c #9C9C63635A5A",
"6	c #A5A57B7B7373",
"7	c #A5A57B7B7B7B",
"8	c #BDBDBDBDC6C6",
"9	c #737373737B7B",
"0	c #101008080808",
"q	c #C6C68C8C8C8C",
"w	c #A5A573736B6B",
"e	c #C6C6BDBDC6C6",
"r	c #B5B5A5A5A5A5",
"t	c #8C8C8C8C9C9C",
"y	c #52525A5A5252",
"u	c #181829292121",
"i	c #C6C6BDBDBDBD",
"p	c #8484ADAD9494",
"a	c #636373736B6B",
"s	c #BDBDC6C6BDBD",
"d	c #C6C6C6C6BDBD",
"f	c #21216B6B3939",
"g	c #29295A5A3939",
"                .XoO    ",
"               +@XoO#   ",
"              $%.oo&*   ",
"              $=-oo;*:  ",
"              >&-,;<1   ",
"             23o;4567   ",
"           89030qw6     ",
"          e90002r       ",
"          ttt02         ",
"         t2ty2          ",
"        9t990           ",
"       9999u            ",
"      90yyy             ",
"    i9000p8             ",
"    u000<               ",
"   2u00a8               ",
"   2y0<                 ",
"   spi                  ",
" dspfps                 ",
"  pffp                  ",
" spgffp                 ",
" spfffp                 ",
"  sppp                  ",
"                        "};
