/* XPM */
static char * splineOp_xpm[] = {
"24 24 4 1",
" 	c #DCDCDADAD5D5",
".	c #0000CDCD0000",
"X	c #000000000000",
"o	c #B6B6BEBEB6B6",
"                        ",
"          ...XXXX       ",
"          .X.    XX     ",
"          ...      X    ",
"            X       X   ",
"             X       X o",
"              X      X  ",
"             ...     X  ",
"             .X.     X  ",
"             ...     X  ",
"     XX      X      X   ",
"    X  X     X     X    ",
"  ...   X   X     X     ",
"  .X.    XXX    ...     ",
"  ...           .X.     ",
"   X            ...     ",
"   X           X        ",
"   X          X         ",
"    X         X         ",
"    X         X         ",
"    X          X        ",
"    X           X       ",
"                 X      ",
"                        "};
