/* XPM */
static char * sprayOp_xpm[] = {
"24 24 28 1",
" 	c #DCDCDADAD5D5",
".	c #BDBDBDBDC6C6",
"X	c #9C9C94949494",
"o	c #181829292121",
"O	c #737373737B7B",
"+	c #8C8C8C8C9C9C",
"@	c #D6D69C9C9494",
"#	c #D6D6B5B5B5B5",
"$	c #101008080808",
"%	c #525229292121",
"&	c #848431312121",
"*	c #BDBDC6C6BDBD",
"=	c #52525A5A5252",
"-	c #949463635A5A",
";	c #C6C6BDBDBDBD",
":	c #636373736B6B",
">	c #8484ADAD9494",
",	c #ADADB5B5ADAD",
"<	c #52528C8C6363",
"1	c #18184A4A2929",
"2	c #9C9CD6D6ADAD",
"3	c #29295A5A3939",
"4	c #73739C9C7B7B",
"5	c #080829291010",
"6	c #292963633939",
"7	c #212163633131",
"8	c #21215A5A3131",
"9	c #21216B6B3939",
"                        ",
"                        ",
"         ...            ",
".XoOOOOOO+O+OOOXXX@@@#  ",
"X$o$$$$O++X++$$%%&&&@@# ",
"*=$$$$$=OOOO=$$----%&&@@",
" ;--:-->=oo$X, ;#@#@-%&@",
"       .:==o.      #@-&@",
"       *:<1<>        #%&",
"       X:2<23        @@&",
"       %22<2:>        @-",
"      X:2>>2,%          ",
"      %,24>22<>         ",
"     +<22>>22,%.        ",
"     %,224>22,:X        ",
"    +<222<2222,%*       ",
"   *3:44<<444445+       ",
"   Xo6361736768o%*      ",
"  *%3378897797615>*     ",
"  +13666769766781%*     ",
" *:311888888888115*     ",
" *>5oo55555oo5o15=      ",
"  *>:O::OO=O=O:=:*      ",
"                        "};
