/* XPM */
static char * textOp_xpm[] = {
"24 24 18 1",
" 	c #DCDCDADAD5D5",
".	c #DCDCDADAD5D5",
"X	c #DCDCDADAD5D5",
"o	c #000000000000",
"O	c #A699A699A699",
"+	c #492449244924",
"@	c #A6999E79A699",
"#	c #A699A289A699",
"$	c #492451444924",
"%	c #71C675D671C6",
"&	c #514451445144",
"*	c #49244D344924",
"=	c #71C679E771C6",
"-	c #A699A2899E79",
";	c #9E799E799E79",
":	c #492451445144",
">	c #79E779E779E7",
",	c #51444D345144",
"     .                  ",
"    ...  .   .          ",
"     ...  ...X .        ",
"      .... oO.          ",
"  ..       o+           ",
"         .ooo@          ",
"     ..  #ooo$..        ",
"     ... %$oooO         ",
".   .   .&@ooo+   .     ",
" . .  ..#* +ooo@   .  . ",
"  ..    =- Oooo* .  .   ",
"     ..;:.. *ooo.  . . .",
".      >+ . #&oo#     . ",
"    .  >,+*+&*oo&...    ",
"  .  .#*. .  *ooo#   . .",
" .  . *#.. .. ooo+.     ",
"     #+   .  .+ooo#     ",
"    .+*  .  . Ooooo     ",
".   oooo.    *+ooooo+  .",
" .       ..  ..         ",
"  .    ..       .   .  .",
"  . .     . . .    .  . ",
"   .  ..            . ..",
"     .      .     .   . "};
