/* XPM */
static char * arrowOp_xpm[] = {
"40 40 3 1",
" 	c white",
".	c #000000000842",
"X	c black",
"                                        ",
"                                        ",
"                                        ",
"                                        ",
"                                        ",
"                                        ",
"                       ..               ",
"                         ..             ",
"                           ..           ",
"                  XXXXXXXXXXXX.         ",
"                           XX           ",
"                         XX             ",
"                       XX               ",
"                                        ",
"                                        ",
"                                        ",
"       ..                               ",
"       ....                             ",
"       .....X                           ",
"   XXXX........                         ",
"       ......                           ",
"       ....                             ",
"       ..                               ",
"                                        ",
"                                        ",
"                           XX           ",
"                            XXX         ",
"                              XXX       ",
"                      XXXXXXXXXXXXX     ",
"                              XXX       ",
"                            XXX         ",
"                           XX           ",
"                                        ",
"                                        ",
"                                        ",
"                                        ",
"                                        ",
"                                        ",
"                                        ",
"                                        "};
