/* XPM */
static char * dynPenOp_xpm[] = {
"40 40 6 1",
" 	c #FFFFFFFFFFFF",
".	c #000000000000",
"X	c #DEDE7D7D7B7B",
"o	c #BDBDBABABDBD",
"O	c #F7F7BABA3939",
"+	c #E7E7BABA8484",
"                                        ",
"                                        ",
"                                        ",
"                                        ",
"                     ...                ",
"                    .XXX.               ",
"                    .XXX.               ",
"                   ..XX.                ",
"                   .o.X.                ",
"                  .ooo.                 ",
"                  ..oo.                 ",
"                 .O...                  ",
"                 .OOO.                  ",
"                .OOO.                   ",
"                .OOO.                   ",
"               .OOO.                    ",
"               .OOO.           ...      ",
"              .OOO.           ......    ",
"              .OOO.         ....  ..    ",
"             .OOO.         ...    ..    ",
"             .OOO.        ...     ..    ",
"            .OOO.         ..      ..    ",
"            .OOO.        ..       ..    ",
"           .OOO.         ..       ..    ",
"           .OOO.         ..      ...    ",
"          .OOO.          ..      ..     ",
"          .++O.         ..      ..      ",
"          .++.          ...    ...      ",
"          ...            ..  ... ..     ",
"          .. .           ......  ..     ",
"            .......     ...........     ",
"              ....................      ",
"                   .....                ",
"                                        ",
"                                        ",
"                                        ",
"                                        ",
"                                        ",
"                                        ",
"                                        "};
