/* XPM */
static char * filledFreehandOp_xpm[] = {
"40 40 3 1",
" 	c white",
".	c black",
"X	c #FBEE14514103",
"                                        ",
"                                        ",
"                                        ",
"                                        ",
"                                        ",
"                                        ",
"                                        ",
"                                        ",
"                                        ",
"                                        ",
"                                        ",
"                         ...            ",
"                        .XXX.           ",
"                       .XXXXX.          ",
"                      .XXXXXXX.         ",
"             ...      .XXXXXXX.         ",
"            .XXX.    .XXXXXXXX.         ",
"           .XXXXX....XXXXXXXXX.         ",
"           .XXXXXXXXXXXXXXXXXX.         ",
"          .XXXXXXXXXXXXXXXXXX.          ",
"          .XXXXXXXXXXXXXXXXXX.          ",
"          .XXXXXXXXXXXXXXXXX.           ",
"          .XXXXXXXXXXXXXXXXX.           ",
"          .XXXXXXXXXXXXXXXX.            ",
"           .XXXXXXXXXXXXXX.             ",
"           .XXXXXXXXXXXX..              ",
"            ..XXXXXXXX..                ",
"              ........                  ",
"                                        ",
"                                        ",
"                                        ",
"                                        ",
"                                        ",
"                                        ",
"                                        ",
"                                        ",
"                                        ",
"                                        ",
"                                        ",
"                                        "};
