/* XPM */
static char * filledSplineOp_xpm[] = {
"40 40 4 1",
" 	c white",
".	c black",
"X	c #FFFFA6990000",
"o	c #FFFF14514103",
"                                        ",
"                                        ",
"                                        ",
"                     ......             ",
"                   .........            ",
"               XXX....oooo..            ",
"              X   X.ooooooo..           ",
"              X   Xoooooooo..           ",
"              X   Xoooooooo..           ",
"               XXXooooooooo..           ",
"               ...ooooooooo..           ",
"                ..oooooooooXXX          ",
"                ..ooooooooX   X         ",
"                ..ooooooooX   X         ",
"                ..ooooooooX   X         ",
"                ..oooooooooXXX..        ",
"          ...  ...oooooooooooo...       ",
"        .........oooooooooooooo...      ",
"     XXX..oo....oooooooooooooooo...     ",
"    X   Xoooooooooooooooooooooooo..     ",
"    X   Xoooooooooooooooooooooooo..     ",
"    X   Xoooooooooooooooooooooooo..     ",
"    .XXXoooooooooooooooooooooooooXXX    ",
"   ..oooooooooooooooooooooooooooX   X   ",
"   ..oooooooooooooooooooooooooooX   X   ",
"   ..oooooooooooooooooooooooooooX   X   ",
"   ..ooooooooooooooooooooooooooo.XXX    ",
"    ..ooooooooooooooooooooooooo...      ",
"    .XXXoooooooooooooooooooooo...       ",
"    X   Xoooooooooooooooooooo...        ",
"    X   Xoooooooooooooooooo....         ",
"    X   Xooooooooooooooooo....          ",
"     XXX    ooooooooooooXXX.            ",
"                oooooooX   X            ",
"                    oooX   X            ",
"                       X   X            ",
"                        XXX             ",
"                                        ",
"                                        ",
"                                        "};
