/* XPM */
static char * selectSplineOp_xpm[] = {
"40 40 3 1",
" 	c #51445144FFFF",
".	c white",
"X	c #FFFFA6990000",
"                                        ",
"                                        ",
"                                        ",
"                      ...               ",
"                   .      .             ",
"               XXX.        .            ",
"              X...X                     ",
"              X...X                     ",
"              X...X         .           ",
"               XXX          .           ",
"                .           .           ",
"                .          XXX          ",
"                          X...X         ",
"                          X...X         ",
"                 .        X...X         ",
"                 .         XXX.         ",
"           .                   .        ",
"         .  .   .               .       ",
"     XXX.      .                        ",
"    X...X                               ",
"    X...X                         .     ",
"    X...X                         .     ",
"    .XXX                         XXX    ",
"                                X...X   ",
"   .                            X...X   ",
"   .                            X...X   ",
"                                .XXX    ",
"                                .       ",
"    .XXX                       .        ",
"    X...X                               ",
"    X...X                               ",
"    X...X                   .           ",
"     XXX.               XXX.            ",
"         ..  ..        X...X            ",
"                 ..  ..X...X            ",
"                       X...X            ",
"                        XXX             ",
"                                        ",
"                                        ",
"                                        "};
