/* XPM */
static char * splineOp_xpm[] = {
"40 40 3 1",
" 	c #FFFFFFFFFFFF",
".	c #000000000000",
"X	c #FFFFA6990000",
"                                        ",
"                                        ",
"                                        ",
"                     ......             ",
"                   .........            ",
"               XXX....    ..            ",
"              X   X.       ..           ",
"              X   X        ..           ",
"              X   X        ..           ",
"               XXX         ..           ",
"               ...         ..           ",
"                ..         XXX          ",
"                ..        X   X         ",
"                ..        X   X         ",
"                ..        X   X         ",
"                ..         XXX..        ",
"          ...  ...            ...       ",
"        .........              ...      ",
"     XXX..  ....                ...     ",
"    X   X                        ..     ",
"    X   X                        ..     ",
"    X   X                        ..     ",
"    .XXX                         XXX    ",
"   ..                           X   X   ",
"   ..                           X   X   ",
"   ..                           X   X   ",
"   ..                           .XXX    ",
"    ..                         ...      ",
"    .XXX                      ...       ",
"    X   X                    ...        ",
"    X   X                  ....         ",
"    X   X                 ....          ",
"     XXX                XXX.            ",
"                       X   X            ",
"                       X   X            ",
"                       X   X            ",
"                        XXX             ",
"                                        ",
"                                        ",
"                                        "};
