/* XPM */
static char * capH_xpm[] = {
"25 25 2 1",
" 	c #000000000000",
".	c #FFFFFFFFFFFF",
"                         ",
"                         ",
"                         ",
"                         ",
"                         ",
"                         ",
"                         ",
"          .. ..          ",
"          .. ..          ",
"          .. ..          ",
"          .. ..          ",
"          .. ..          ",
"............ ............",
"          .. ..          ",
"          .. ..          ",
"          .. ..          ",
"          .. ..          ",
"          .. ..          ",
"                         ",
"                         ",
"                         ",
"                         ",
"                         ",
"                         ",
"                         "};
