/* XPM */
static char * grid_xpm[] = {
"27 27 2 1",
" 	c #000000000000",
".	c #FFFFFFFFFFFF",
"                           ",
" .   .   .   .   .   .   . ",
"                           ",
"                           ",
"                           ",
" .   .   .   .   .   .   . ",
"                           ",
"                           ",
"                           ",
" .   .   .   .   .   .   . ",
"                           ",
"                           ",
"                           ",
" .   .   .   .   .   .   . ",
"                           ",
"                           ",
"                           ",
" .   .   .   .   .   .   . ",
"                           ",
"                           ",
"                           ",
" .   .   .   .   .   .   . ",
"                           ",
"                           ",
"                           ",
" .   .   .   .   .   .   . ",
"                           "};
