/* XPM */
static char * op_amp_xpm[] = {
"47 51 3 1",
" 	c #000004100000",
".	c #FFFFFFFFFFFF",
"X	c #000000000000",
"   .XXXXXXXXXXXX                               ",
"   ..XXXXXXXXXXXXXXXXXXX                       ",
"   .X..XXXXXXXXXXXXXXXXX                       ",
"   .XXX..XXXXXXXXXXXXXXX                       ",
"   .XXXXX.XXXXXXXXXXXXXX                       ",
"   .XXXXXX..XXXXXXXXXXXXX                      ",
"   .XXXXXXXX..XXXXXXXXXXXXXX                   ",
"   .XXXXXXXXXX..XXXXXXXXXXXXXXXX               ",
"   .XXXXXXXXXXXX.XXXXXXXXXXXXXXXXX             ",
"   .XXXXXXXXXXXXX..XXXXXXXXXXXXXXXX            ",
"   .XXXXXXXXXXXXXXX..XXXXXXXXXXXXXXXX          ",
"   .    XXXXXXXXXXXXX.XXXXXXXXXXXXXXXXXXXXXXXXX",
"   .        XXXXXXXXXX..XXXXXXXXXXXXXXXXXXXXXXX",
"....  ..... XXXXXXXXXXXX..XXXXXXXXXXXXXXXXXXXXX",
"   .XXXXXXXXXXXXXXXXXXXXXX.XXXXXXXXXXXXXXXXXXXX",
"   .XXXXXXXXXXXXXXXXXXXXXXX..XXXXXXXXXXXXXXXXXX",
"   .XXXXXXXXXXXXXXXXXXXXXXXXX..XXXXXXXXXXXXXXXX",
"   .XXXXXXXXXXX  XXXXXXXXXXXXXX.XXXXXXXXXXXXXXX",
"   .XXXXXXXXXXX      XXXXXXXXXXX..XXXXXXXXXXXXX",
"   .XXXXXXXXXXX        XXXXXXXXXXX..XXXXXXXXXXX",
"   .XXXXXXXXXXX         XXXXXXXXXXXX..XXXXXXXXX",
"   .XXXXXXXXXXX           XXXXXXXXXXXX.XXXXXXXX",
"   .XXXXXXXXXXX             XXXXXXXXXXX..XXXXXX",
"XXX.XXXXXXXXXXX              XXXXXXXXXXXX..XXXX",
"XXX.XXXXXXXXXXX               XXXXXXXXXXXXX.XXX",
"XXX.XXXXXXXXXXXXXX        XXXXXXXXXXXXXXXXXX...",
"XXX.XXXXXXXXXXXXXXXXXXXXXXXXXXXXXXXXXXXXXXX.X  ",
"XXX.XXXXXXXXXXX             XXXXXXXXXXXXX..XXXX",
"   .XXXXXXXXXXX           XXXXXXXXXXXXX..XXXXXX",
"   .XXXXXXXXXXX         XXXXXXXXXXXXXX.XXXXXXXX",
"   .XXXXXXXXXXX        XXXXXXXXXXXXX..XXXXXXXXX",
"   .XXXXXXXXXXX       XXXXXXXXXXXX..XXXXXXXXXXX",
"   .XXXXXXXXXXX      XXXXXXXXXXX..XXXXXXXXXXXXX",
"   .XXXXXXXXXXX     XXXXXXXXXXX.XXXXXXXXXXXXXXX",
"   .XXXXXXXXXXX    XXXXXXXXXX..XXXXXXXXXXXXXXXX",
"   .XXXX.XXXXXX   XXXXXXXXX..XXXXXXXXXXXXXXXXXX",
"   .XXXX.XXXXXX XXXXXXXXXX.XXXXXXXXXXXXXXXXXXXX",
"....  .....   XXXXXXXXXX..XXXXXXXXXXXXXXXXXXXXX",
"   .    .  XXXXXXXXXXX..XXXXXXXXXXXXXXX        ",
"   .    .XXXXXXXXXXXX.XXXXXXXXXXXXXXX          ",
"   . XXXXXXXXXXXXXX..XXXXXXXXXXXXXX            ",
"   . XXXXXXXXXXXX..XXXXXXXXXXXXXXX .           ",
"   . XXXXXXXXXXX.XXXXXXXXXXXXXXXX              ",
"   . XXXXXXXXX..XXXXXXXXXXXXXXXX               ",
"   . XXXXXXX..XXXXXXXXXXXXXXXXX                ",
"   . XXXXX..XXXXXXXXXXXXXXXXXX                 ",
"   . XXXX.XXXXXXXXXXXXXXXXXX                   ",
"   . XX..XXXXXXXXXXXXXXXXX                     ",
"   .X..XXXXXXXXXXXXXXXXX                       ",
"   ..XXXXXXXXXXXXXXXX                          ",
" XX.XXXXXXXXXXXXXXX               XXXXXXXXXXX  "};
