/* XPM */
static char * resH_xpm[] = {
"25 25 2 1",
" 	c #000000000000",
".	c #FFFFFFFFFFFF",
"                         ",
"                         ",
"                         ",
"                         ",
"                         ",
"                         ",
"                         ",
"                         ",
"                         ",
"                         ",
"    .       .       .    ",
"   . .     . .     . .   ",
"...   .   .   .   .   ...",
"       . .     . .       ",
"        .       .        ",
"                         ",
"                         ",
"                         ",
"                         ",
"                         ",
"                         ",
"                         ",
"                         ",
"                         ",
"                         "};
